!!!OTL: 1335. Zum Aufbruch (1871.)
!!!ODT: 1880
!!!ARE: Europa, Mitteleuropa, Deutschland, Hessen, Darmstadt
!!!SCT: E1335
!!!TXL: @@DE
!!!YEM: Copyright 1995, estate of Helmut Schaffrath.
**kern	**text
*ICvox	*
*M4/4	*
*met(c)	*
*k[f#]	*
*G:	*
!LO:TX:a:t=Lebhaft.	!
!LO:TX:a:t=Aus Heſſen-Darmſtadt von Soldaten. 1880.	!
{4d	Es
=1	=1
4.g	iſt
8a	ſchon
8.bL	al-
16aJ	.
8.bL	-les
16ccJ	.
=2	=2
(4dd	fer-
4b)	.
4dd}	-tig,
{8.ee	was
16dd	wir
=3	=3
(4cc	brau-
4dd)	.
4b}	-chen,
{4d	Es
=4	=4
4.g	iſt
8a	ſchon
8.bL	al-
16aJ	.
8.bL	-les
16ccJ	.
=5	=5
(4dd	fer-
4b)	.
4dd}	-tig,
{8.ee	was
16dd	wir
=6	=6
(4cc	brau-
4dd)	.
4b	-chen,
4r}	.
=7	=7
{4g	ſchwe-
(8.b/	-re
16a)	Ge-
4g	-ſchü-
4d	-tʒe
=8	=8
4g	Roß
4b/	und
4dd	Wag'n,
4r}	.
=9	=9
{4g	was
(8.b/	man
16a)	im
4g	Fel-
4d	-de
=10	=10
4g	noch
4b/	muß
4dd	hab'n;
4r}	.
=11	=11
{4.g	lau-
8a	-ter
8.b/	ſchö-
16a	-ne
8.b	jun-
16cc	-ge
=12	=12
(4dd	Leu-
4b)	.
4dd}	-te
{8.eeL	ʒum
16ddJ	.
=13	=13
(4cc	Strei-
4dd)	.
4b}	-te.
==	==
!!!AGN: Staende -, Soldaten -, Kriegs - Lied
!!!ONB: ESAC (Essen Associative Code) Database: ERK3
!!!AMT: simple quadruple
!!!AIN: vox
!!!EED: Helmut Schaffrath
!!!EEV: 1.0
!!!GTL: Staendelieder (Berufslieder). 1. Soldaten- und Kriegslieder. Soldatenlieder seit dem 30jaehr. Kriege.
!!!URL-scan: https://rosdok.uni-rostock.de/mcrviewer/recordIdentifier/rosdok_ppn745177999/iview2/phys_0220.iview2?x=-128.77276441889308&y=107.29956773715094&scale=0.5870222003877485&rotation=0&layout=singlePageLayout
!!!ENC: Anna Maria Matuszewska
!!!EEV: 2024/12/27
*-	*-
